icons/ArrowDownToLine.svg

<svg width="24" height="24" viewBox="0 0 24 24" fill="none" xmlns="http://www.w3.org/2000/svg">
<path fill-rule="evenodd" clip-rule="evenodd" d="M17.5303,11.5303l-5,5c-0.2929,0.2929 -0.7677,0.2929 -1.0606,0l-5.00003,-5c-0.29289,-0.2929 -0.29289,-0.7677 0,-1.0606c0.29289,-0.2929 0.76777,-0.2929 1.06066,0l3.71967,3.7196v-10.1893c0,-0.41421 0.3358,-0.75 0.75,-0.75c0.4142,0 0.75,0.33579 0.75,0.75v10.1893l3.7197,-3.7196c0.2929,-0.2929 0.7677,-0.2929 1.0606,0c0.2929,0.2929 0.2929,0.7677 0,1.0606zM19,18.25c0.4142,0 0.75,0.3358 0.75,0.75c0,0.4142 -0.3358,0.75 -0.75,0.75h-14c-0.41421,0 -0.75,-0.3358 -0.75,-0.75c0,-0.4142 0.33579,-0.75 0.75,-0.75z" fill="#002B51"/>
</svg>

<svg width="24" height="24" viewBox="0 0 24 24" fill="none" xmlns="http://www.w3.org/2000/svg">
<path fill-rule="evenodd" clip-rule="evenodd" d="M17.5303 11.5303L12.5303 16.5303C12.2374 16.8232 11.7626 16.8232 11.4697 16.5303L6.46967 11.5303C6.17678 11.2374 6.17678 10.7626 6.46967 10.4697C6.76256 10.1768 7.23744 10.1768 7.53033 10.4697L11.25 14.1893V4C11.25 3.58579 11.5858 3.25 12 3.25C12.4142 3.25 12.75 3.58579 12.75 4V14.1893L16.4697 10.4697C16.7626 10.1768 17.2374 10.1768 17.5303 10.4697C17.8232 10.7626 17.8232 11.2374 17.5303 11.5303ZM5 18.25C4.58579 18.25 4.25 18.5858 4.25 19C4.25 19.4142 4.58579 19.75 5 19.75H19C19.4142 19.75 19.75 19.4142 19.75 19C19.75 18.5858 19.4142 18.25 19 18.25H5Z" fill="#002B51"/>
</svg>
